images/icons/google.svg

<svg width="10" height="10" viewBox="0 0 10 10" fill="none" xmlns="http://www.w3.org/2000/svg">
<path fill-rule="evenodd" clip-rule="evenodd" d="M9.8937 5.11364C9.8937 4.75909 9.86188 4.41819 9.80279 4.09091H5.09369V6.02501H7.7846C7.66869 6.65001 7.31642 7.17955 6.78687 7.5341V8.78865H8.40279C9.34824 7.91819 9.8937 6.63637 9.8937 5.11364Z" fill="#4285F4"/>
<path fill-rule="evenodd" clip-rule="evenodd" d="M5.0935 9.99999C6.4435 9.99999 7.57532 9.55226 8.40259 8.78862L6.78668 7.53408C6.33895 7.83408 5.76623 8.01135 5.0935 8.01135C3.79122 8.01135 2.68895 7.1318 2.29576 5.94998H0.625305V7.24544C1.44803 8.87953 3.13895 9.99999 5.0935 9.99999Z" fill="#34A853"/>
<path fill-rule="evenodd" clip-rule="evenodd" d="M2.29597 5.94998C2.19597 5.64998 2.13915 5.32952 2.13915 4.99998C2.13915 4.67043 2.19597 4.34997 2.29597 4.04997V2.75452H0.625508C0.286871 3.42952 0.093689 4.19316 0.093689 4.99998C0.093689 5.8068 0.286871 6.57043 0.625508 7.24544L2.29597 5.94998Z" fill="#FBBC05"/>
<path fill-rule="evenodd" clip-rule="evenodd" d="M5.0935 1.98864C5.82759 1.98864 6.48668 2.24091 7.00486 2.73637L8.43896 1.30228C7.57305 0.495456 6.44123 0 5.0935 0C3.13895 0 1.44803 1.12046 0.625305 2.75455L2.29576 4.05001C2.68895 2.86819 3.79122 1.98864 5.0935 1.98864Z" fill="#EA4335"/>
</svg>

<svg width="10" height="10" fill="none" xmlns="http://www.w3.org/2000/svg"><path fill-rule="evenodd" clip-rule="evenodd" d="M9.894 5.114c0-.355-.032-.696-.091-1.023h-4.71v1.934h2.692a2.3 2.3 0 0 1-.998 1.51v1.254h1.616c.945-.87 1.49-2.153 1.49-3.675Z" fill="#4285F4"/><path fill-rule="evenodd" clip-rule="evenodd" d="M5.093 10c1.35 0 2.482-.448 3.31-1.211L6.787 7.534c-.448.3-1.02.477-1.694.477-1.302 0-2.404-.88-2.797-2.061H.626v1.295A4.998 4.998 0 0 0 5.092 10Z" fill="#34A853"/><path fill-rule="evenodd" clip-rule="evenodd" d="M2.296 5.95c-.1-.3-.157-.62-.157-.95 0-.33.057-.65.157-.95V2.755H.626a4.998 4.998 0 0 0 0 4.49l1.67-1.295Z" fill="#FBBC05"/><path fill-rule="evenodd" clip-rule="evenodd" d="M5.093 1.989c.735 0 1.394.252 1.912.747l1.434-1.434C7.573.495 6.441 0 5.093 0A4.998 4.998 0 0 0 .625 2.755l1.67 1.295c.394-1.182 1.496-2.061 2.798-2.061Z" fill="#EA4335"/></svg>
